src/icons/question-circle.svg

<svg viewBox="0 0 40 40" fill="none" xmlns="http://www.w3.org/2000/svg">
<circle opacity="0.4" cx="20" cy="20" r="20" fill="currentColor"/>
<path d="M19.3916 24.6442C20.6496 24.6398 21.4477 23.9279 21.513 22.9899C21.5127 22.8984 21.5123 22.784 21.512 22.7154C21.5765 21.5258 22.3972 20.7223 23.8806 19.7565C26.1169 18.2619 27.5763 16.953 27.567 14.2997C27.5537 10.4799 24.1151 8.31894 20.0666 8.33308C16.1553 8.34673 13.4853 10.1402 12.7838 12.2927C12.6479 12.682 12.5806 13.0711 12.5821 13.4829C12.5859 14.5808 13.4575 15.2639 14.3724 15.2607C15.2187 15.2578 15.7665 14.9128 16.2218 14.2936L16.5861 13.8348C17.3366 12.5742 18.4322 11.907 19.8045 11.9022C21.6573 11.8958 22.9191 12.9893 22.9246 14.5447C22.9296 15.9857 21.9714 16.6981 20.0319 18.0544C18.4118 19.1809 17.2265 20.3744 17.2338 22.4559L17.2347 22.7075C17.2392 23.9884 18.0192 24.649 19.3916 24.6442ZM19.3932 31.6663C20.8571 31.6612 22.0656 30.5819 22.0606 29.1409C22.0555 27.6999 20.8396 26.652 19.3757 26.6571C17.8889 26.6623 16.7033 27.7415 16.7082 29.1596C16.7133 30.6006 17.9293 31.6714 19.3932 31.6663Z" fill="currentColor"/>
</svg>

<svg viewBox="0 0 40 40" fill="none" xmlns="http://www.w3.org/2000/svg"><circle opacity=".4" cx="20" cy="20" r="20" fill="currentColor"/><path d="M19.392 24.644c1.258-.004 2.056-.716 2.121-1.654l-.001-.275c.064-1.19.885-1.993 2.369-2.959 2.236-1.494 3.695-2.803 3.686-5.456-.013-3.82-3.452-5.981-7.5-5.967-3.912.014-6.582 1.807-7.283 3.96-.136.389-.203.778-.202 1.19.004 1.098.875 1.78 1.79 1.778.847-.003 1.395-.348 1.85-.967l.364-.46c.75-1.26 1.846-1.927 3.219-1.932 1.852-.006 3.114 1.087 3.12 2.643.005 1.44-.954 2.153-2.893 3.51-1.62 1.126-2.805 2.32-2.798 4.4v.253c.005 1.28.785 1.941 2.158 1.936zm.001 7.022c1.464-.005 2.673-1.084 2.668-2.525-.006-1.441-1.221-2.489-2.685-2.484-1.487.005-2.673 1.084-2.668 2.503.005 1.44 1.221 2.511 2.685 2.506z" fill="currentColor"/></svg>
